build/img/sprites/ChatsCircle.svg

<svg width="54" height="54" viewBox="0 0 54 54" fill="none" xmlns="http://www.w3.org/2000/svg">
<path d="M48.9526 39.3946C50.1186 36.9761 50.6908 34.3144 50.6215 31.6304C50.5522 28.9465 49.8435 26.3178 48.5543 23.9627C47.2651 21.6077 45.4325 19.5942 43.2089 18.0896C40.9852 16.585 38.4346 15.6327 35.769 15.3118C34.8821 13.2497 33.5926 11.3851 31.9761 9.82752C30.3595 8.26989 28.4485 7.05045 26.3548 6.24061C24.2611 5.43077 22.0269 5.0468 19.783 5.11119C17.5391 5.17559 15.3305 5.68705 13.2867 6.61562C11.243 7.5442 9.40498 8.87122 7.88044 10.519C6.35591 12.1668 5.17546 14.1021 4.40823 16.2118C3.641 18.3215 3.3024 20.563 3.41227 22.8052C3.52215 25.0473 4.07827 27.245 5.04809 29.2696L3.51458 34.4818C3.34312 35.0637 3.33165 35.6811 3.48139 36.2689C3.63113 36.8567 3.93653 37.3933 4.36547 37.8223C4.79441 38.2512 5.33102 38.5566 5.91886 38.7064C6.5067 38.8561 7.12403 38.8446 7.70591 38.6732L12.9182 37.1397C14.5918 37.9438 16.3862 38.4675 18.2296 38.6901C19.1252 40.7885 20.437 42.6835 22.0857 44.2605C23.7345 45.8376 25.6859 47.0639 27.822 47.8654C29.9582 48.6669 32.2346 49.0269 34.5138 48.9237C36.793 48.8204 39.0276 48.256 41.0825 47.2647L46.2948 48.7982C46.8765 48.9694 47.4935 48.9808 48.0811 48.8312C48.6687 48.6815 49.2051 48.3763 49.634 47.9477C50.0628 47.519 50.3683 46.9828 50.5182 46.3953C50.6682 45.8078 50.6571 45.1907 50.4861 44.609L48.9526 39.3946ZM13.0785 33.6444C12.9172 33.6448 12.7568 33.6675 12.6018 33.7119L6.75036 35.4374L8.47372 29.5818C8.59629 29.1587 8.5486 28.7045 8.34083 28.3161C6.81429 25.4613 6.3645 22.1529 7.07344 18.9941C7.78238 15.8353 9.60285 13.0365 12.203 11.1078C14.8031 9.17905 18.0098 8.24893 21.2384 8.48696C24.467 8.72499 27.5025 10.1153 29.7917 12.4045C32.0809 14.6937 33.4712 17.7292 33.7092 20.9578C33.9473 24.1864 33.0171 27.3931 31.0884 29.9932C29.1597 32.5933 26.3609 34.4138 23.2021 35.1227C20.0433 35.8317 16.7349 35.3819 13.88 33.8554C13.6346 33.7195 13.3591 33.647 13.0785 33.6444ZM45.5186 39.7047L47.2504 45.5624L41.3947 43.839C40.9717 43.7165 40.5175 43.7642 40.1291 43.9719C37.0216 45.6312 33.389 46.0112 30.0054 45.0308C26.6218 44.0505 23.755 41.7873 22.0159 38.7238C24.3265 38.4826 26.5623 37.7666 28.583 36.6206C30.6038 35.4746 32.3659 33.9233 33.7589 32.0641C35.1518 30.2049 36.1455 28.078 36.6777 25.8166C37.2098 23.5553 37.2688 21.2084 36.8511 18.9231C38.8643 19.3976 40.7415 20.3284 42.3379 21.6436C43.9342 22.9587 45.2071 24.6231 46.0581 26.5082C46.9092 28.3934 47.3157 30.4489 47.2462 32.516C47.1768 34.5832 46.6334 36.6068 45.6578 38.4306C45.4478 38.8213 45.4 39.279 45.5249 39.7047H45.5186Z" fill="#78213A"/>
</svg>

<svg width="54" height="54" viewBox="0 0 54 54" fill="none" xmlns="http://www.w3.org/2000/svg"><path d="M48.953 39.395a16.875 16.875 0 00-13.184-24.083A16.875 16.875 0 105.049 29.27l-1.534 5.212a3.375 3.375 0 004.19 4.191l5.213-1.533a16.96 16.96 0 005.312 1.55 16.875 16.875 0 0022.853 8.575l5.212 1.533a3.376 3.376 0 004.191-4.189l-1.533-5.214zm-35.875-5.75c-.16 0-.321.022-.476.067L6.75 35.437l1.724-5.855a1.688 1.688 0 00-.133-1.266 13.5 13.5 0 115.539 5.54 1.687 1.687 0 00-.802-.212zm32.44 6.06l1.732 5.857-5.855-1.723a1.688 1.688 0 00-1.266.133 13.51 13.51 0 01-18.113-5.248 16.86 16.86 0 0014.835-19.8 13.5 13.5 0 018.807 19.507c-.21.39-.258.848-.133 1.274h-.006z" fill="#78213A"/></svg>
